X:1
T:Title
%%score { ( 1 3 ) | ( 2 4 ) }
L:1/8
Q:1/4=110
M:4/4
K:Eb
V:1 treble nm="Grand Piano"
V:3 treble 
V:2 bass 
V:4 bass 
V:1
 G2 B2 c2 B2 | E2 [DF]2 G4 | c2 B2 G2 E2 | [EG]4 [DF]4 | G2 B2 c2 B2 | E2 [DF]2 G4 | %6
w: J.~Lincoln~Hall * * *||||||
 c2 e2 [GB]2 [EG]2 | [DF]4 E4 | e2 d2 c2 G2 | c4 c4 | G2 B2 G2 B2 | B6[K:bass] z2 | d2 c2 A2 F2 | %13
w: |||||||
 d4 d4 | c2 d2 c2 A2 | [EGB]6 B,2 | e2 d2 c2 G2 | c4 c4 | [=E_d]2 [Ec]2 [B,EG]2 [CEB]2 | %19
w: ||||||
 [CFA]6 G,2 | f2 e2 d2 c2 | e2 B2 B2 A2 | G4 [DF]4 | [B,E]6 z2 |] %24
w: |||||
V:2
 [E,B,E]2 [G,B,E]2 [A,E]2 [G,B,E]2 | [E,G,]2 [B,,B,]2 [E,B,E]4 | [A,E]2 [G,B,E]2 [E,B,E]2 [E,G,]2 | %3
 [B,,B,]4 [B,,B,]4 | [E,B,E]2 [G,B,E]2 [A,E]2 [G,B,E]2 | [E,G,]2 [B,,B,]2 [E,B,E]4 | %6
 [A,E]2 [A,CA]2[K:bass] [E,E]2 [E,B,]2 | [B,,A,]4 [E,G,]4 | [EGB]2 [DGB]2 [CEG]2 [G,E]2 | %9
 [CEG]4 [CEG]4 | [E,B,E]2 [E,G,E]2 [=E,B,_D]2 [E,G,D]2 | [A,D]6 z2 | [DFA]2 [CFA]2 [A,DF]2 [F,D]2 | %13
 [DFA]4 [DFA]4 | [B,DA]2 [B,DA]2 [B,DA]2 [B,DF]2 | E,2 E,2 G,2 z2 | [EGB]2 [DGB]2 [CEG]2 [G,E]2 | %17
 [CEG]4 [CEG]4 | [C,G,]2 [C,G,]2 C,2 C,2 | F,2 C,2 F,2 z2 | [A,CA]2 [A,CA]2 [=A,C_G]2 [A,EG]2 | %21
 [B,EG]2[K:bass] [G,_DE]2 [A,CE]2 [F,CF]2 | [B,E]4 [B,,A,]4 | [E,G,]6 z2 |] %24
V:3
 x8 | x8 | x8 | x8 | x8 | x8 | x8 | x8 | x8 | x8 | x8 | z2[K:bass] B,,2 F,2 B,2 | x8 | x8 | x8 | %15
 x8 | x8 | x8 | x8 | x8 | x8 | x8 | x8 | x8 |] %24
V:4
 x8 | x8 | x8 | x8 | x8 | x8 | x4[K:bass] x4 | x8 | x8 | x8 | x8 | F,2 z2 z4 | x8 | x8 | x8 | x8 | %16
 x8 | x8 | x8 | x8 | x8 | x2[K:bass] x6 | x8 | x8 |] %24

